X:1
T:Simple Bach-like Cello Piece
C:in the style of J.S. Bach
M:3/4
L:1/8
Q:1/4=100
K:G

% A Section
|: G B d G B d | e d c B A G | G B d G B d | g f e d E D :|

% B Section
|: D F A d f a | g f e d c B | A c E c E A | d c B A G G :|

